icons/svg/crypto/gto.svg

<svg fill="none" height="32" viewBox="0 0 32 32" width="32" xmlns="http://www.w3.org/2000/svg"><path d="m16 32c8.8366 0 16-7.1634 16-16 0-8.83656-7.1634-16-16-16-8.83656 0-16 7.16344-16 16 0 8.8366 7.16344 16 16 16z" fill="#7f27ff"/><path d="m15.4669 13.8667h-6.93332v6.9332c-.01446 1.4583 1.15601 2.6522 2.61432 2.6667.0174.0002.0349.0002.0524 0h4.2666zm1.0667 0h6.9333v6.9332c.0145 1.4583-1.156 2.6522-2.6143 2.6667-.0175.0002-.0349.0002-.0524 0h-4.2666z" fill="#fff"/><path d="m16.5335 12.8h6.7225c.7441 0 1.28-.64 1.28-1.28 0-.7442-.64-1.28-1.28-1.28h-14.40251c-.7442 0-1.28.64-1.28 1.28 0 .7442.64 1.28 1.28 1.28h6.61331v-1.7066h1.0667" fill="#fff"/><g stroke="#fff" stroke-width=".5"><path d="m16.7444 10.6667c1.4933-2.66669 2.6667-3.52002 3.52-2.66669s.32 1.70666-1.4933 2.66669"/><path d="m15.256 10.6667c-1.4933-2.66669-2.6666-3.52002-3.5199-2.66669-.8534.85333-.32 1.70666 1.4933 2.66669"/></g></svg>

<svg fill="none" height="32" width="32" xmlns="http://www.w3.org/2000/svg">
    <path d="M16 32c8.837 0 16-7.163 16-16S24.837 0 16 0 0 7.163 0 16s7.163 16 16 16Z"
        fill="#7F27FF" />
    <path d="M15.467 13.867H8.534V20.8a2.64 2.64 0 0 0 2.666 2.667h4.267v-9.6Zm1.067 0h6.933V20.8a2.64 2.64 0 0 1-2.667 2.667h-4.266v-9.6Zm0-1.067h6.722c.744 0 1.28-.64 1.28-1.28 0-.744-.64-1.28-1.28-1.28H8.853c-.744 0-1.28.64-1.28 1.28 0 .744.64 1.28 1.28 1.28h6.614v-1.707h1.066"
        fill="#fff" />
    <path d="M16.744 10.667C18.238 8 19.411 7.147 20.264 8c.854.853.32 1.707-1.493 2.667m-3.515 0C13.763 8 12.589 7.147 11.736 8c-.853.853-.32 1.707 1.493 2.667" stroke="#fff"
        stroke-width=".5" />
</svg>
